img/sound.svg

<!DOCTYPE svg PUBLIC "-//W3C//DTD SVG 1.1//EN" "http://www.w3.org/Graphics/SVG/1.1/DTD/svg11.dtd">
<!-- Uploaded to: SVG Repo, www.svgrepo.com, Transformed by: SVG Repo Mixer Tools -->
<svg width="800px" height="800px" viewBox="0 0 512.00 512.00" version="1.1" xmlns="http://www.w3.org/2000/svg" xmlns:xlink="http://www.w3.org/1999/xlink" fill="#ffffff" data-darkreader-inline-fill="" style="--darkreader-inline-fill: #181a1b; --darkreader-inline-stroke: #e8e6e3;" stroke="#ffffff" data-darkreader-inline-stroke="">
<g id="SVGRepo_bgCarrier" stroke-width="0"/>
<g id="SVGRepo_tracerCarrier" stroke-linecap="round" stroke-linejoin="round"/>
<g id="SVGRepo_iconCarrier"> <title>sound-loud</title> <g id="Page-1" stroke-width="0.00512" fill="none" fill-rule="evenodd" style=""> <g id="icon" fill="#000000" transform="translate(42.666667, 85.333333)" data-darkreader-inline-fill="" style="--darkreader-inline-fill: #000000;"> <path d="M361.299413,341.610667 L328.014293,314.98176 C402.206933,233.906133 402.206933,109.96608 328.013013,28.8906667 L361.298133,2.26304 C447.910187,98.97536 447.908907,244.898347 361.299413,341.610667 Z M276.912853,69.77216 L243.588693,96.4309333 C283.38432,138.998613 283.38304,204.87488 243.589973,247.44256 L276.914133,274.101333 C329.118507,215.880107 329.118507,127.992107 276.912853,69.77216 Z M191.749973,1.42108547e-14 L80.8957867,87.2292267 L7.10542736e-15,87.2292267 L7.10542736e-15,257.895893 L81.0208,257.895893 L191.749973,343.35424 L191.749973,1.42108547e-14 L191.749973,1.42108547e-14 Z M42.6666667,129.895893 L95.6874667,129.895893 L149.083307,87.8749867 L149.083307,256.520747 L95.5624533,215.229227 L42.6666667,215.229227 L42.6666667,129.895893 Z" id="Shape"> </path> </g> </g> </g>
</svg>

<?xml version="1.0" encoding="UTF-8" standalone="no"?>
<svg width="800px" height="800px" viewBox="0 0 512.00 512.00" version="1.1" stroke="#000000" id="svg1" sodipodi:docname="sound.svg" inkscape:version="1.3.2 (091e20e, 2023-11-25, custom)" xmlns:inkscape="http://www.inkscape.org/namespaces/inkscape" xmlns:sodipodi="http://sodipodi.sourceforge.net/DTD/sodipodi-0.dtd" xmlns="http://www.w3.org/2000/svg" xmlns:svg="http://www.w3.org/2000/svg">
    <g id="icon" fill="#000000" transform="matrix(1.1984783,0,0,1.2976137,0.42460014,65.336123)">
        <path d="m 361.29941,341.61067 -33.28512,-26.62891 c 74.19264,-81.07563 74.19264,-205.01568 -0.001,-286.091093 L 361.29813,2.26304 c 86.61206,96.71232 86.61078,242.63531 10e-4,339.34763 z M 276.91285,69.77216 243.58869,96.430933 c 39.79563,42.567677 39.79435,108.443947 10e-4,151.011627 l 33.32416,26.65877 c 52.20438,-58.22122 52.20438,-146.10922 -0.001,-204.32917 z M 191.74997,0 80.895787,87.229227 H 0 V 257.89589 h 81.0208 l 110.72917,85.45835 z M 42.666667,129.89589 h 53.0208 L 149.08331,87.874987 V 256.52075 L 95.562453,215.22923 H 42.666667 Z" id="Shape"/>
    </g>
</svg>
